; generated by Slic3r 1.3.0 on 2019-03-02 at 13:25:39

; external perimeters extrusion width = 0.33mm (2.57mm^3/s)
; perimeters extrusion width = 0.33mm (3.42mm^3/s)
; infill extrusion width = 0.33mm (4.28mm^3/s)
; solid infill extrusion width = 0.30mm (3.73mm^3/s)
; top infill extrusion width = 0.30mm (3.73mm^3/s)

M107
M190 S80 ; set bed temperature and wait for it to be reached
M104 S245 ; set temperature
G28 ; home all axes
G1 Z5 F5000 ; lift nozzle

; Filament gcode

M109 S245 ; set temperature and wait for it to be reached
G21 ; set units to millimeters
G90 ; use absolute coordinates
M82 ; use absolute distances for extrusion
G92 E0
G1 E-2.00000 F600.00000
G92 E0
G1 Z0.100 F7200.000
G1 Z0.200 F7200.000
G1 Z0.300 F7200.000
G1 X95.970 Y67.680 F7200.000
G1 Z0.200 F7200.000
G1 E2.25000 F600.00000
G1 F2250
G1 X97.729 Y66.156 E2.27653
G1 X99.899 Y65.313 E2.30306
G1 X101.250 Y65.178 E2.31854
G1 X129.250 Y65.178 E2.63769
G1 X131.544 Y65.575 E2.66422
G1 X133.570 Y66.720 E2.69075
G1 X134.658 Y67.840 E2.70855
G1 X146.658 Y83.440 E2.93289
G1 X147.741 Y85.500 E2.95942
G1 X148.072 Y87.600 E2.98365
G1 X148.072 Y128.000 E3.44414
G1 X147.675 Y130.294 E3.47067
G1 X146.530 Y132.320 E3.49720
G1 X144.771 Y133.844 E3.52373
G1 X142.601 Y134.687 E3.55026
G1 X141.250 Y134.822 E3.56574
G1 X101.250 Y134.822 E4.02167
G1 X98.956 Y134.425 E4.04820
G1 X96.930 Y133.280 E4.07473
G1 X95.406 Y131.521 E4.10126
G1 X94.563 Y129.351 E4.12779
G1 X94.428 Y128.000 E4.14327
G1 X94.428 Y72.000 E4.78157
G1 X94.825 Y69.706 E4.80810
G1 X95.940 Y67.732 E4.83395
G1 X96.105 Y67.731 F7200.000
G1 F2250
G1 X97.860 Y66.238 E4.86021
G1 X100.018 Y65.429 E4.88647
G1 X101.250 Y65.315 E4.90058
G1 X129.250 Y65.315 E5.21973
G1 X131.520 Y65.712 E5.24599
G1 X133.519 Y66.855 E5.27225
G1 X134.549 Y67.924 E5.28916
G1 X146.549 Y83.524 E5.51350
G1 X147.618 Y85.565 E5.53976
G1 X147.935 Y87.600 E5.56324
G1 X147.935 Y128.000 E6.02372
G1 X147.538 Y130.270 E6.04999
G1 X146.395 Y132.269 E6.07625
G1 X144.640 Y133.762 E6.10251
G1 X142.482 Y134.571 E6.12877
G1 X141.250 Y134.685 E6.14287
G1 X101.250 Y134.685 E6.59880
G1 X98.980 Y134.288 E6.62506
G1 X96.981 Y133.145 E6.65133
G1 X95.488 Y131.390 E6.67759
G1 X94.679 Y129.232 E6.70385
G1 X94.565 Y128.000 E6.71795
G1 X94.565 Y72.000 E7.35625
G1 X94.962 Y69.730 E7.38252
G1 X96.076 Y67.783 E7.40809
G1 X96.241 Y67.782 F7200.000
G1 F2250
G1 X97.991 Y66.320 E7.43408
G1 X101.250 Y65.452 E7.47252
G1 X129.250 Y65.452 E7.79167
G1 X131.495 Y65.849 E7.81766
G1 X133.468 Y66.991 E7.84365
G1 X134.440 Y68.007 E7.85968
G1 X146.440 Y83.607 E8.08401
G1 X147.495 Y85.629 E8.11000
G1 X147.798 Y87.600 E8.13273
G1 X147.798 Y128.000 E8.59322
G1 X147.401 Y130.245 E8.61921
G1 X146.259 Y132.218 E8.64519
G1 X144.509 Y133.680 E8.67118
G1 X141.250 Y134.548 E8.70962
G1 X101.250 Y134.548 E9.16555
G1 X99.005 Y134.151 E9.19154
G1 X97.032 Y133.009 E9.21753
G1 X95.570 Y131.259 E9.24352
G1 X94.702 Y128.000 E9.28196
G1 X94.702 Y72.000 E9.92026
G1 X95.099 Y69.755 E9.94625
G1 X96.211 Y67.834 E9.97155
G1 X96.377 Y67.834 F7200.000
G1 F2250
G1 X98.122 Y66.404 E9.99726
G1 X101.250 Y65.589 E10.03411
G1 X129.250 Y65.589 E10.35326
G1 X131.471 Y65.986 E10.37897
G1 X133.416 Y67.127 E10.40468
G1 X134.332 Y68.091 E10.41983
G1 X146.332 Y83.691 E10.64417
G1 X147.371 Y85.693 E10.66988
G1 X147.661 Y87.600 E10.69186
G1 X147.661 Y128.000 E11.15235
G1 X147.264 Y130.221 E11.17807
G1 X146.123 Y132.166 E11.20378
G1 X144.378 Y133.596 E11.22949
G1 X141.250 Y134.411 E11.26634
G1 X101.250 Y134.411 E11.72226
G1 X99.029 Y134.014 E11.74798
G1 X97.084 Y132.873 E11.77369
G1 X95.654 Y131.128 E11.79940
G1 X94.839 Y128.000 E11.83625
G1 X94.839 Y72.000 E12.47455
G1 X95.236 Y69.779 E12.50026
G1 X96.347 Y67.885 E12.52529
G1 X96.513 Y67.886 F7200.000
G1 F2250
G1 X98.252 Y66.488 E12.55072
G1 X101.250 Y65.726 E12.58598
G1 X129.250 Y65.726 E12.90513
G1 X131.446 Y66.123 E12.93057
G1 X133.364 Y67.263 E12.95600
G1 X134.223 Y68.175 E12.97028
G1 X146.223 Y83.775 E13.19461
G1 X147.247 Y85.757 E13.22005
G1 X147.524 Y87.600 E13.24129
G1 X147.524 Y128.000 E13.70178
G1 X147.127 Y130.196 E13.72721
G1 X145.987 Y132.114 E13.75264
G1 X144.248 Y133.512 E13.77808
G1 X141.250 Y134.274 E13.81334
G1 X101.250 Y134.274 E14.26926
G1 X99.054 Y133.877 E14.29470
G1 X97.136 Y132.737 E14.32013
G1 X95.738 Y130.998 E14.34557
G1 X94.976 Y128.000 E14.38082
G1 X94.976 Y72.000 E15.01912
G1 X95.373 Y69.804 E15.04456
G1 X96.482 Y67.938 E15.06931
G1 X96.649 Y67.939 F7200.000
G1 F2250
G1 X98.382 Y66.574 E15.09446
G1 X101.250 Y65.863 E15.12814
G1 X129.250 Y65.863 E15.44729
G1 X131.421 Y66.260 E15.47244
G1 X133.311 Y67.399 E15.49759
G1 X134.114 Y68.258 E15.51100
G1 X146.114 Y83.858 E15.73534
G1 X147.123 Y85.821 E15.76049
G1 X147.387 Y87.600 E15.78099
G1 X147.387 Y128.000 E16.24148
G1 X146.990 Y130.171 E16.26663
G1 X145.851 Y132.061 E16.29179
G1 X144.118 Y133.426 E16.31694
G1 X141.250 Y134.137 E16.35061
G1 X101.250 Y134.137 E16.80654
G1 X99.079 Y133.740 E16.83170
G1 X97.189 Y132.601 E16.85685
G1 X95.824 Y130.868 E16.88200
G1 X95.113 Y128.000 E16.91568
G1 X95.113 Y72.000 E17.55398
G1 X95.510 Y69.829 E17.57913
G1 X96.618 Y67.991 E17.60360
G1 F5760
G1 X98.382 Y66.574 E17.37966
G1 F5760
G1 X101.250 Y65.863 E17.08730
G1 F5760
G1 X115.233 Y65.863 E15.70360
G1 E15.60360 F600.00000
G92 E0
G1 Z0.300 F7200.000
G1 X115.711 Y89.527 F7200.000
G1 Z0.200 F7200.000
G1 E2.25000 F600.00000
G1 F1800
G1 X104.023 Y89.527 E2.38323
G1 X104.023 Y74.948 E2.54940
G1 X104.398 Y74.821 E2.55392
G1 X115.675 Y89.480 E2.76472
G1 X115.433 Y89.390 F7200.000
G1 F1350
G1 X104.160 Y89.390 E2.89321
G1 X104.160 Y75.047 E3.05670
G1 X104.350 Y74.982 E3.05898
G1 X115.396 Y89.342 E3.26549
G1 X115.521 Y89.780 F7200.000
G1 X115.477 Y92.073 F7200.000
G1 F1800
G1 X104.023 Y92.073 E3.39605
G1 X104.023 Y96.027 E3.44112
G1 X105.023 Y96.027 E3.45252
G1 X105.023 Y96.773 E3.46102
G1 X101.477 Y96.773 E3.50143
G1 X101.477 Y72.227 E3.78121
G1 X106.138 Y72.227 E3.83434
G1 X118.023 Y87.677 E4.05652
G1 X118.023 Y96.773 E4.16019
G1 X114.477 Y96.773 E4.20061
G1 X114.477 Y96.027 E4.20911
G1 X115.477 Y96.027 E4.22051
G1 X115.477 Y92.133 E4.26490
G1 X115.340 Y92.210 F7200.000
G1 F1350
G1 X104.160 Y92.210 E4.39233
G1 X104.160 Y95.890 E4.43427
G1 X105.160 Y95.890 E4.44567
G1 X105.160 Y96.910 E4.45730
G1 X101.340 Y96.910 E4.50084
G1 X101.340 Y72.090 E4.78374
G1 X106.206 Y72.090 E4.83920
G1 X118.160 Y87.631 E5.06268
G1 X118.160 Y96.910 E5.16845
G1 X114.340 Y96.910 E5.21199
G1 X114.340 Y95.890 E5.22362
G1 X115.340 Y95.890 E5.23502
G1 X115.340 Y92.270 E5.27628
G1 X115.375 Y91.812 F7200.000
G1 X115.956 Y89.642 F7200.000
G1 F2250
G1 X117.891 Y87.708 E5.30749
G1 X117.806 Y87.598 E5.30907
G1 X115.871 Y89.533 E5.34027
G1 X115.787 Y89.423 E5.34185
G1 X117.722 Y87.488 E5.37306
G1 X117.638 Y87.379 E5.37464
G1 X115.703 Y89.314 E5.40585
G1 X115.618 Y89.204 E5.40743
G1 X117.553 Y87.269 E5.43864
G1 X117.469 Y87.159 E5.44021
G1 X115.534 Y89.094 E5.47142
G1 X115.450 Y88.985 E5.47300
G1 X117.385 Y87.050 E5.50421
G1 X117.300 Y86.940 E5.50579
G1 X115.365 Y88.875 E5.53700
G1 X115.281 Y88.765 E5.53857
G1 X117.216 Y86.831 E5.56978
G1 X117.131 Y86.721 E5.57136
G1 X115.197 Y88.656 E5.60257
G1 X115.112 Y88.546 E5.60415
G1 X117.047 Y86.611 E5.63536
G1 X116.963 Y86.502 E5.63693
G1 X115.028 Y88.436 E5.66814
G1 X114.944 Y88.327 E5.66972
G1 X116.878 Y86.392 E5.70093
G1 X116.794 Y86.282 E5.70251
G1 X114.859 Y88.217 E5.73372
G1 X114.775 Y88.107 E5.73529
G1 X116.710 Y86.173 E5.76650
G1 X116.625 Y86.063 E5.76808
G1 X114.691 Y87.998 E5.79929
G1 X114.606 Y87.888 E5.80087
G1 X116.541 Y85.953 E5.83208
G1 X116.457 Y85.844 E5.83365
G1 X114.522 Y87.779 E5.86486
G1 X114.438 Y87.669 E5.86644
G1 X116.372 Y85.734 E5.89765
G1 X116.288 Y85.624 E5.89923
G1 X114.353 Y87.559 E5.93044
G1 X114.269 Y87.450 E5.93201
G1 X116.204 Y85.515 E5.96322
G1 X116.119 Y85.405 E5.96480
G1 X114.185 Y87.340 E5.99601
G1 X114.100 Y87.230 E5.99759
G1 X116.035 Y85.295 E6.02880
G1 X115.951 Y85.186 E6.03037
G1 X114.016 Y87.121 E6.06158
G1 X113.932 Y87.011 E6.06316
G1 X115.866 Y85.076 E6.09437
G1 X115.782 Y84.967 E6.09595
G1 X113.847 Y86.901 E6.12716
G1 X113.763 Y86.792 E6.12874
G1 X115.698 Y84.857 E6.15994
G1 X115.613 Y84.747 E6.16152
G1 X113.678 Y86.682 E6.19273
G1 X113.594 Y86.572 E6.19431
G1 X115.529 Y84.638 E6.22552
G1 X115.445 Y84.528 E6.22710
G1 X113.510 Y86.463 E6.25830
G1 X113.425 Y86.353 E6.25988
G1 X115.360 Y84.418 E6.29109
G1 X115.276 Y84.309 E6.29267
G1 X113.341 Y86.244 E6.32388
G1 X113.257 Y86.134 E6.32546
G1 X115.192 Y84.199 E6.35666
G1 X115.107 Y84.089 E6.35824
G1 X113.172 Y86.024 E6.38945
G1 X113.088 Y85.915 E6.39103
G1 X115.023 Y83.980 E6.42224
G1 X114.939 Y83.870 E6.42382
G1 X113.004 Y85.805 E6.45503
G1 X112.919 Y85.695 E6.45660
G1 X114.854 Y83.760 E6.48781
G1 X114.770 Y83.651 E6.48939
G1 X112.835 Y85.586 E6.52060
G1 X112.751 Y85.476 E6.52218
G1 X114.686 Y83.541 E6.55339
G1 X114.601 Y83.432 E6.55496
G1 X112.666 Y85.366 E6.58617
G1 X112.582 Y85.257 E6.58775
G1 X114.517 Y83.322 E6.61896
G1 X114.433 Y83.212 E6.62054
G1 X112.498 Y85.147 E6.65175
G1 X112.413 Y85.037 E6.65332
G1 X114.348 Y83.103 E6.68453
G1 X114.264 Y82.993 E6.68611
G1 X112.329 Y84.928 E6.71732
G1 X112.245 Y84.818 E6.71890
G1 X114.180 Y82.883 E6.75011
G1 X114.095 Y82.774 E6.75168
G1 X112.160 Y84.709 E6.78289
G1 X112.076 Y84.599 E6.78447
G1 X114.011 Y82.664 E6.81568
G1 X113.926 Y82.554 E6.81726
G1 X111.992 Y84.489 E6.84847
G1 X111.907 Y84.380 E6.85004
G1 X113.842 Y82.445 E6.88125
G1 X113.758 Y82.335 E6.88283
G1 X111.823 Y84.270 E6.91404
G1 X111.739 Y84.160 E6.91562
G1 X113.673 Y82.225 E6.94683
G1 X113.589 Y82.116 E6.94840
G1 X111.654 Y84.051 E6.97961
G1 X111.570 Y83.941 E6.98119
G1 X113.505 Y82.006 E7.01240
G1 X113.420 Y81.897 E7.01398
G1 X111.486 Y83.831 E7.04519
G1 X111.401 Y83.722 E7.04676
G1 X113.336 Y81.787 E7.07797
G1 X113.252 Y81.677 E7.07955
G1 X111.317 Y83.612 E7.11076
G1 X111.233 Y83.502 E7.11234
G1 X113.167 Y81.568 E7.14355
G1 X113.083 Y81.458 E7.14512
G1 X111.148 Y83.393 E7.17633
G1 X111.064 Y83.283 E7.17791
G1 X112.999 Y81.348 E7.20912
G1 X112.914 Y81.239 E7.21070
G1 X110.980 Y83.173 E7.24191
G1 X110.895 Y83.064 E7.24349
G1 X112.830 Y81.129 E7.27469
G1 X112.746 Y81.019 E7.27627
G1 X110.811 Y82.954 E7.30748
G1 X110.727 Y82.845 E7.30906
G1 X112.661 Y80.910 E7.34027
G1 X112.577 Y80.800 E7.34185
G1 X110.642 Y82.735 E7.37305
G1 X110.558 Y82.625 E7.37463
G1 X112.493 Y80.690 E7.40584
G1 X112.408 Y80.581 E7.40742
G1 X110.473 Y82.516 E7.43863
G1 X110.389 Y82.406 E7.44021
G1 X112.324 Y80.471 E7.47141
G1 X112.240 Y80.361 E7.47299
G1 X110.305 Y82.296 E7.50420
G1 X110.220 Y82.187 E7.50578
G1 X112.155 Y80.252 E7.53699
G1 X112.071 Y80.142 E7.53857
G1 X110.136 Y82.077 E7.56977
G1 X110.052 Y81.967 E7.57135
G1 X111.987 Y80.033 E7.60256
G1 X111.902 Y79.923 E7.60414
G1 X109.967 Y81.858 E7.63535
G1 X109.883 Y81.748 E7.63693
G1 X111.818 Y79.813 E7.66813
G1 X111.734 Y79.704 E7.66971
G1 X109.799 Y81.638 E7.70092
G1 X109.714 Y81.529 E7.70250
G1 X111.649 Y79.594 E7.73371
G1 X111.565 Y79.484 E7.73529
G1 X109.630 Y81.419 E7.76650
G1 X109.546 Y81.310 E7.76807
G1 X111.481 Y79.375 E7.79928
G1 X111.396 Y79.265 E7.80086
G1 X109.461 Y81.200 E7.83207
G1 X109.377 Y81.090 E7.83365
G1 X111.312 Y79.155 E7.86486
G1 X111.228 Y79.046 E7.86643
G1 X109.293 Y80.981 E7.89764
G1 X109.208 Y80.871 E7.89922
G1 X111.143 Y78.936 E7.93043
G1 X111.059 Y78.826 E7.93201
G1 X109.124 Y80.761 E7.96322
G1 X109.040 Y80.652 E7.96479
G1 X110.975 Y78.717 E7.99600
G1 X110.890 Y78.607 E7.99758
G1 X108.955 Y80.542 E8.02879
G1 X108.871 Y80.432 E8.03037
G1 X110.806 Y78.498 E8.06158
G1 X110.721 Y78.388 E8.06315
G1 X108.787 Y80.323 E8.09436
G1 X108.702 Y80.213 E8.09594
G1 X110.637 Y78.278 E8.12715
G1 X110.553 Y78.169 E8.12873
G1 X108.618 Y80.103 E8.15994
G1 X108.534 Y79.994 E8.16151
G1 X110.468 Y78.059 E8.19272
G1 X110.384 Y77.949 E8.19430
G1 X108.449 Y79.884 E8.22551
G1 X108.365 Y79.775 E8.22709
G1 X110.300 Y77.840 E8.25830
G1 X110.215 Y77.730 E8.25987
G1 X108.281 Y79.665 E8.29108
G1 X108.196 Y79.555 E8.29266
G1 X110.131 Y77.620 E8.32387
G1 X110.047 Y77.511 E8.32545
G1 X108.112 Y79.446 E8.35666
G1 X108.028 Y79.336 E8.35823
G1 X109.962 Y77.401 E8.38944
G1 X109.878 Y77.291 E8.39102
G1 X107.943 Y79.226 E8.42223
G1 X107.859 Y79.117 E8.42381
G1 X109.794 Y77.182 E8.45502
G1 X109.709 Y77.072 E8.45659
G1 X107.775 Y79.007 E8.48780
G1 X107.690 Y78.897 E8.48938
G1 X109.625 Y76.963 E8.52059
G1 X109.541 Y76.853 E8.52217
G1 X107.606 Y78.788 E8.55338
G1 X107.522 Y78.678 E8.55495
G1 X109.456 Y76.743 E8.58616
G1 X109.372 Y76.634 E8.58774
G1 X107.437 Y78.568 E8.61895
G1 X107.353 Y78.459 E8.62053
G1 X109.288 Y76.524 E8.65174
G1 X109.203 Y76.414 E8.65331
G1 X107.269 Y78.349 E8.68452
G1 X107.184 Y78.239 E8.68610
G1 X109.119 Y76.305 E8.71731
G1 X109.035 Y76.195 E8.71889
G1 X107.100 Y78.130 E8.75010
G1 X107.015 Y78.020 E8.75168
G1 X108.950 Y76.085 E8.78288
G1 X108.866 Y75.976 E8.78446
G1 X106.931 Y77.911 E8.81567
G1 X106.847 Y77.801 E8.81725
G1 X108.782 Y75.866 E8.84846
G1 X108.697 Y75.756 E8.85004
G1 X106.762 Y77.691 E8.88124
G1 X106.678 Y77.582 E8.88282
G1 X108.613 Y75.647 E8.91403
G1 X108.529 Y75.537 E8.91561
G1 X106.594 Y77.472 E8.94682
G1 X106.509 Y77.362 E8.94840
G1 X108.444 Y75.427 E8.97960
G1 X108.360 Y75.318 E8.98118
G1 X106.425 Y77.253 E9.01239
G1 X106.341 Y77.143 E9.01397
G1 X108.276 Y75.208 E9.04518
G1 X108.191 Y75.099 E9.04676
G1 X106.256 Y77.033 E9.07796
G1 X106.172 Y76.924 E9.07954
G1 X108.107 Y74.989 E9.11075
G1 X108.023 Y74.879 E9.11233
G1 X106.088 Y76.814 E9.14354
G1 X106.003 Y76.704 E9.14512
G1 X107.938 Y74.770 E9.17632
G1 X107.854 Y74.660 E9.17790
G1 X105.919 Y76.595 E9.20911
G1 X105.835 Y76.485 E9.21069
G1 X107.770 Y74.550 E9.24190
G1 X107.685 Y74.441 E9.24348
G1 X105.750 Y76.376 E9.27468
G1 X105.666 Y76.266 E9.27626
G1 X107.601 Y74.331 E9.30747
G1 X107.517 Y74.221 E9.30905
G1 X105.582 Y76.156 E9.34026
G1 X105.497 Y76.047 E9.34184
G1 X107.432 Y74.112 E9.37305
G1 X107.348 Y74.002 E9.37462
G1 X105.413 Y75.937 E9.40583
G1 X105.329 Y75.827 E9.40741
G1 X107.263 Y73.892 E9.43862
G1 X107.179 Y73.783 E9.44020
G1 X105.244 Y75.718 E9.47141
G1 X105.160 Y75.608 E9.47298
G1 X107.095 Y73.673 E9.50419
G1 X107.010 Y73.564 E9.50577
G1 X105.076 Y75.498 E9.53698
G1 X104.991 Y75.389 E9.53856
G1 X106.926 Y73.454 E9.56977
G1 X106.842 Y73.344 E9.57134
G1 X104.907 Y75.279 E9.60255
G1 X104.823 Y75.169 E9.60413
G1 X106.757 Y73.235 E9.63534
G1 X106.673 Y73.125 E9.63692
G1 X104.738 Y75.060 E9.66813
G1 X104.654 Y74.950 E9.66970
G1 X106.589 Y73.015 E9.70091
G1 X106.504 Y72.906 E9.70249
G1 X104.570 Y74.841 E9.73370
G1 X104.485 Y74.731 E9.73528
G1 X106.420 Y72.796 E9.76649
G1 X106.336 Y72.686 E9.76806
G1 X104.310 Y74.712 E9.80074
G1 X104.016 Y74.812 E9.80429
G1 X106.251 Y72.577 E9.84035
G1 X106.167 Y72.467 E9.84193
G1 X101.604 Y77.030 E9.91552
G1 X101.604 Y76.836 E9.91773
G1 X106.080 Y72.354 E9.98997
G1 X105.892 Y72.354 E9.99212
G1 X101.604 Y76.642 E10.06128
G1 X101.604 Y76.448 E10.06349
G1 X105.698 Y72.354 E10.12952
G1 X105.504 Y72.354 E10.13173
G1 X101.604 Y76.254 E10.19462
G1 X101.604 Y76.060 E10.19684
G1 X105.310 Y72.354 E10.25660
G1 X105.116 Y72.354 E10.25882
G1 X101.604 Y75.866 E10.31545
G1 X101.604 Y75.672 E10.31767
G1 X104.922 Y72.354 E10.37117
G1 X104.728 Y72.354 E10.37339
G1 X101.604 Y75.478 E10.42377
G1 X101.604 Y75.284 E10.42598
G1 X104.534 Y72.354 E10.47323
G1 X104.340 Y72.354 E10.47544
G1 X101.604 Y75.090 E10.51956
G1 X101.604 Y74.896 E10.52178
G1 X104.146 Y72.354 E10.56277
G1 X103.952 Y72.354 E10.56498
G1 X101.604 Y74.702 E10.60285
G1 X101.604 Y74.508 E10.60506
G1 X103.758 Y72.354 E10.63979
G1 X103.564 Y72.354 E10.64201
G1 X101.604 Y74.314 E10.67361
G1 X101.604 Y74.120 E10.67582
G1 X103.370 Y72.354 E10.70430
G1 X103.176 Y72.354 E10.70651
G1 X101.604 Y73.926 E10.73186
G1 X101.604 Y73.732 E10.73407
G1 X102.982 Y72.354 E10.75629
G1 X102.788 Y72.354 E10.75850
G1 X101.604 Y73.538 E10.77759
G1 X101.604 Y73.344 E10.77981
G1 X102.594 Y72.354 E10.79577
G1 X102.400 Y72.354 E10.79798
G1 X101.604 Y73.150 E10.81081
G1 X101.604 Y72.956 E10.81302
G1 X102.206 Y72.354 E10.82273
G1 X102.012 Y72.354 E10.82494
G1 X101.604 Y72.762 E10.83151
G1 X101.604 Y72.568 E10.83373
